lib/brands/icons/adobe-photoshop.svg

<svg xmlns="http://www.w3.org/2000/svg" fill="none" aria-hidden="true" viewBox="0 0 48 48"><g id="adobe-photoshop-Icon"><g id="Group"><rect width="36" height="36" x="5.99902" y="6" fill="#001E36" rx="8"/><g id="Ps"><path fill="#31A8FF" fill-rule="evenodd" d="M13.168 31.6596V16.083C13.168 15.9771 13.213 15.9165 13.318 15.9165C13.573 15.9165 13.813 15.9165 14.158 15.9014C14.3434 15.8936 14.5327 15.8898 14.7281 15.8859C14.9122 15.8822 15.1015 15.8784 15.298 15.8711C15.5074 15.8633 15.7249 15.8595 15.9505 15.8556C16.161 15.8519 16.3785 15.8481 16.603 15.8408C17.068 15.8257 17.518 15.8257 17.968 15.8257C19.198 15.8257 20.218 15.9771 21.058 16.2949C21.808 16.5523 22.498 16.9761 23.068 17.5362C23.548 18.0206 23.923 18.611 24.163 19.2619C24.388 19.8977 24.508 20.5486 24.508 21.2298C24.508 22.5316 24.208 23.6064 23.608 24.4541C23.008 25.3018 22.168 25.9376 21.193 26.3009C20.173 26.6794 19.048 26.8156 17.818 26.8156C17.458 26.8156 17.218 26.8156 17.068 26.8005C16.918 26.7853 16.708 26.7853 16.423 26.7853L16.423 31.6445C16.438 31.7505 16.363 31.8413 16.258 31.8564H13.348C13.228 31.8564 13.168 31.7959 13.168 31.6596ZM16.438 18.8381V23.9243L16.483 23.9276C16.6759 23.9415 16.8559 23.9546 17.023 23.9546H17.818C18.403 23.9546 18.988 23.8638 19.543 23.6821C20.023 23.5459 20.443 23.2583 20.773 22.8798C21.088 22.5014 21.238 21.9867 21.238 21.3206C21.253 20.8514 21.133 20.3821 20.893 19.9734C20.638 19.5798 20.278 19.2771 19.843 19.1105C19.288 18.8835 18.688 18.7927 18.073 18.8078C17.683 18.8078 17.338 18.8078 17.053 18.8229C16.753 18.8078 16.543 18.8229 16.438 18.8381Z" clip-rule="evenodd"/><path fill="#31A8FF" d="M32.4279 22.4862C32.9379 22.5922 33.4179 22.7587 33.8679 23.0009C33.9279 23.0312 34.0029 23.0312 34.1379 23.0009C34.1829 22.9706 34.2129 22.9101 34.2129 22.8495V20.3821C34.2129 20.3215 34.1979 20.261 34.1829 20.2004C34.1529 20.1399 34.0929 20.0793 34.0329 20.0642C33.6279 19.8977 33.1929 19.7766 32.7429 19.716C32.1279 19.6252 31.4979 19.5798 30.8829 19.5798C29.8179 19.5798 28.9329 19.7463 28.2279 20.1096C27.5829 20.4124 27.0279 20.8968 26.6529 21.5023C26.3229 22.0624 26.1429 22.683 26.1429 23.3339C26.1279 23.8637 26.2479 24.3936 26.4879 24.878C26.7729 25.3926 27.1629 25.8316 27.6279 26.1647C28.2879 26.6188 28.9929 26.9821 29.7579 27.2546C30.4929 27.5422 30.9879 27.7693 31.2279 27.966C31.4679 28.1628 31.5879 28.3596 31.5879 28.5715C31.5879 28.844 31.4229 29.1014 31.1829 29.2073C30.9129 29.3436 30.5079 29.4193 29.9379 29.4193C29.3379 29.4193 28.7379 29.3436 28.1679 29.1922C27.5079 29.0408 26.8929 28.7986 26.3079 28.4504C26.2629 28.4202 26.2179 28.405 26.1729 28.4353C26.1279 28.4656 26.1129 28.5261 26.1129 28.5715V31.2055C26.0979 31.3266 26.1729 31.4326 26.2779 31.4931C26.7579 31.7202 27.2829 31.8867 27.8079 31.9775C28.4829 32.1137 29.1579 32.1743 29.8479 32.1743C30.9279 32.1743 31.8279 32.0078 32.5629 31.6899C33.2379 31.4174 33.8229 30.9482 34.2429 30.3426C34.6329 29.7523 34.8429 29.0408 34.8279 28.3293C34.8429 27.7844 34.7229 27.2546 34.4829 26.7702C34.1979 26.2555 33.7929 25.8316 33.2979 25.5137C32.5779 25.0596 31.7979 24.6812 30.9879 24.4087C30.6279 24.2573 30.2679 24.0908 29.9229 23.9092C29.7279 23.8032 29.5479 23.667 29.4129 23.5004C29.3229 23.3793 29.2629 23.2431 29.2629 23.1069C29.2629 22.9706 29.3079 22.8193 29.3829 22.6982C29.4879 22.5468 29.6529 22.4408 29.8479 22.3954C30.1329 22.3197 30.4479 22.2743 30.7479 22.2894C31.3179 22.2894 31.8729 22.3651 32.4279 22.4862Z"/></g></g></g></svg>

<svg xmlns="http://www.w3.org/2000/svg" fill="none" aria-hidden="true" viewBox="0 0 48 48"><rect width="36" height="36" x="5.999" y="6" fill="#001E36" rx="8"/><path fill="#31A8FF" fill-rule="evenodd" d="M13.168 31.66V16.083c0-.106.046-.166.15-.166.255 0 .495 0 .84-.016.186-.007.375-.011.57-.015.185-.004.374-.008.57-.015.21-.008.427-.011.653-.015.21-.004.428-.008.652-.015.465-.015.915-.015 1.365-.015 1.23 0 2.25.151 3.09.469a5.35 5.35 0 0 1 2.01 1.241 4.83 4.83 0 0 1 1.095 1.726 5.82 5.82 0 0 1 .346 1.968c0 1.302-.3 2.376-.9 3.224a5.144 5.144 0 0 1-2.416 1.847c-1.02.378-2.145.515-3.375.515-.36 0-.6 0-.75-.015-.15-.016-.36-.016-.645-.016v4.86a.188.188 0 0 1-.164.211h-2.91c-.12 0-.18-.06-.18-.196Zm3.27-12.822v5.086l.046.004c.192.014.372.027.54.027h.794c.585 0 1.17-.091 1.726-.273.48-.136.9-.424 1.23-.802.314-.379.464-.893.464-1.56a2.51 2.51 0 0 0-.345-1.347 2.18 2.18 0 0 0-1.05-.863 4.367 4.367 0 0 0-1.77-.302c-.39 0-.735 0-1.02.015a3.4 3.4 0 0 0-.614.015Z" clip-rule="evenodd"/><path fill="#31A8FF" d="M32.428 22.486c.51.106.99.273 1.44.515.06.03.135.03.27 0a.187.187 0 0 0 .075-.152v-2.467c0-.06-.015-.121-.03-.182a.269.269 0 0 0-.15-.136 5.243 5.243 0 0 0-1.29-.348 12.82 12.82 0 0 0-1.86-.136c-1.065 0-1.95.166-2.655.53-.645.302-1.2.787-1.575 1.392-.33.56-.51 1.181-.51 1.832-.015.53.105 1.06.345 1.544a3.91 3.91 0 0 0 1.14 1.287c.66.454 1.365.817 2.13 1.09.735.287 1.23.514 1.47.711.24.197.36.394.36.605 0 .273-.165.53-.405.636-.27.137-.675.212-1.245.212-.6 0-1.2-.075-1.77-.227a6.387 6.387 0 0 1-1.86-.742c-.045-.03-.09-.045-.135-.015-.045.03-.06.091-.06.137v2.634c-.015.12.06.227.165.287.48.227 1.005.394 1.53.485.675.136 1.35.196 2.04.196 1.08 0 1.98-.166 2.715-.484a3.765 3.765 0 0 0 1.68-1.347c.39-.59.6-1.302.585-2.014a3.293 3.293 0 0 0-.345-1.559 3.509 3.509 0 0 0-1.185-1.256c-.72-.454-1.5-.833-2.31-1.105-.36-.152-.72-.318-1.065-.5a1.695 1.695 0 0 1-.51-.409.677.677 0 0 1-.15-.393c0-.136.045-.288.12-.409a.77.77 0 0 1 .465-.303c.285-.075.6-.12.9-.106.57 0 1.125.076 1.68.197Z"/></svg>
